X:8087
T:WHTCOKDA- The White Cockade
O:england
S:Rutherford's 2nd selection of 200 CD's, c 1764
Q:1/4=120
L:1/4
M:C|
K:G
G/A/|BBc/B/A/G/|Bd2e|dBc/B/A/G/|BA2G/A/|BBc/B/A/G/|\
ABg3/2a/|b/a/g/e/ d/e/g/e/|dBB::B/c/|\
dBgB|dB2B/c/|dBgB|aA2G/A/|BBc/B/A/G/|\
ABg3/2 a/|b/a/g/e/ d/e/g/e/|dBB:|]


